X:47
L:1/8
M:2/2
K:Ador
 A2 B2 c2 d2 | egf>a g2 (d>c) | B2 GB d2 G2 | B2 GB d2 G2 | A2 B2 c2 d2 | edfa g2 f2 | gage d2 B2 | 
 (A8 || A2) B2 c2 d2 | egf>a g2 d>c | B2 ge d2 G2 | BAGB dB G2 | AGBd cBcd | edfa g2 f2 | 
 gage d2 B2 | A8 |: a2 e2 a2 ab | a2 e2 e2 ef | g2 gg{ga} gfga | b2 g2 d2 fg | a2 ab a2 ba | 
{ga} gfga b2 a2 | gbge d2 B2 | A8 :|

